X: 41530
T: Uncle Leo's
R: slip jig
M: 9/8
K: Amajor
|:ABA fec e2f|ABA fec B2c|ABA fec e2f|1 B2B dcB:|2 dcB AGF||
E2B BAG BAG|E2B AGE D2F|EBB BAG BAG|B/c/d B AGE D2F|
E2B BAG BAG|E2B AGE D2F|EBB BAG BAG|B/c/d B ABd efg||
aff agf fge|fdd fga gab|aff agf fge|fdA Bcd efg|
aff agf fge|dcB ABA GFE|D3 EDE FGA|BAB cBc dcB||

